src/components/00-materials/images-raw/Hand Heart.svg

<svg width="96" height="96" viewBox="0 0 96 96" fill="none" xmlns="http://www.w3.org/2000/svg">
<path d="M43.36 61.3901L52.68 62.6901C53.4136 62.7851 54.1564 62.7851 54.89 62.6901H55.29C56.0461 62.451 56.7142 61.9925 57.2092 61.3728C57.7042 60.7532 58.0038 60.0004 58.07 59.2101C58.15 58.1534 57.8074 57.1082 57.1174 56.3038C56.4275 55.4995 55.4465 55.0018 54.39 54.9201L41.54 53.2601C39.3318 52.978 37.0887 53.1817 34.9676 53.8571C32.8464 54.5325 30.8985 55.6632 29.26 57.1701L21.48 64.3201L20.91 64.7501M47.62 44.8401C47.7211 44.9402 47.8577 44.9964 48 44.9964C48.1423 44.9964 48.2789 44.9402 48.38 44.8401L61.66 31.0001C63.3819 29.0635 64.3164 26.5524 64.2794 23.9612C64.2424 21.3701 63.2366 18.8867 61.46 17.0001C60.6039 16.0812 59.5719 15.3438 58.4253 14.8316C57.2786 14.3195 56.0407 14.0431 54.785 14.0188C53.5294 13.9946 52.2818 14.223 51.1162 14.6905C49.9506 15.1579 48.8909 15.855 48 16.7401C47.1091 15.855 46.0494 15.1579 44.8838 14.6905C43.7182 14.223 42.4705 13.9946 41.2149 14.0188C39.9593 14.0431 38.7214 14.3195 37.5747 14.8316C36.428 15.3438 35.396 16.0812 34.54 17.0001C32.7634 18.8867 31.7576 21.3701 31.7205 23.9612C31.6835 26.5524 32.618 29.0635 34.34 31.0001L47.62 44.8401Z" stroke="#00008F" stroke-width="2" stroke-linecap="round" stroke-linejoin="round"/>
<path d="M38.61 72.6902C39.29 72.6902 54.19 75.5802 54.19 75.5802C55.8457 75.9003 57.5613 75.59 59 74.7102L70.74 67.5002L82.29 56.6002C82.7015 56.2119 82.9533 55.6839 82.9958 55.1197C83.0383 54.5555 82.8686 53.9958 82.52 53.5502C82.1971 53.1318 81.7946 52.7816 81.3356 52.5197C80.8767 52.2578 80.3703 52.0895 79.8459 52.0244C79.3215 51.9593 78.7894 51.9988 78.2803 52.1405C77.7712 52.2822 77.2953 52.5235 76.88 52.8502L67.33 60.2902L55.33 62.6702M38.61 72.6902C37.4353 72.6653 36.2914 73.0667 35.39 73.8202L31.53 77.1002L38.61 72.6902ZM55 26.0002H47L43.94 32.1102L40.65 19.9502L37.3 26.0002H27M19.94 63.6202C19.7693 63.4206 19.5609 63.2565 19.3268 63.1374C19.0927 63.0184 18.8374 62.9465 18.5756 62.9261C18.3137 62.9057 18.0504 62.937 17.8006 63.0184C17.5509 63.0997 17.3196 63.2295 17.12 63.4002L13.7 66.3002C13.2998 66.6447 13.0521 67.1334 13.0109 67.6599C12.9697 68.1863 13.1383 68.7076 13.48 69.1102L25.54 83.3002C25.7107 83.4998 25.9191 83.6639 26.1532 83.7829C26.3873 83.902 26.6426 83.9738 26.9044 83.9943C27.1663 84.0147 27.4296 83.9834 27.6794 83.902C27.9291 83.8207 28.1604 83.6909 28.36 83.5202L31.78 80.6202C32.1802 80.2757 32.4279 79.787 32.4691 79.2605C32.5103 78.7341 32.3417 78.2128 32 77.8102L19.94 63.6202Z" stroke="#00008F" stroke-width="2" stroke-linecap="round" stroke-linejoin="round"/>
</svg>

<svg width="96" height="96" viewBox="0 0 96 96" fill="none" xmlns="http://www.w3.org/2000/svg"><path d="M43.36 61.39l9.32 1.3a8.604 8.604 0 002.21 0h.4a4 4 0 002.78-3.48 4 4 0 00-3.68-4.29l-12.85-1.66a15.28 15.28 0 00-12.28 3.91l-7.78 7.15-.57.43m26.71-19.91a.54.54 0 00.76 0L61.66 31a10.37 10.37 0 00-.2-14A9.372 9.372 0 0048 16.74a9.37 9.37 0 00-13.46.26 10.37 10.37 0 00-.2 14l13.28 13.84z" stroke="#00008F" stroke-width="2" stroke-linecap="round" stroke-linejoin="round"/><path d="M38.61 72.69c.68 0 15.58 2.89 15.58 2.89a6.76 6.76 0 004.81-.87l11.74-7.21 11.55-10.9a2.27 2.27 0 00.23-3.05 4 4 0 00-5.64-.7l-9.55 7.44-12 2.38M38.61 72.69a4.86 4.86 0 00-3.22 1.13l-3.86 3.28 7.08-4.41zM55 26h-8l-3.06 6.11-3.29-12.16L37.3 26H27m-7.06 37.62a2 2 0 00-2.82-.22l-3.42 2.9a2 2 0 00-.22 2.81L25.54 83.3a1.999 1.999 0 002.82.22l3.42-2.9a2 2 0 00.22-2.81L19.94 63.62z" stroke="#00008F" stroke-width="2" stroke-linecap="round" stroke-linejoin="round"/></svg>
